svgs/regular/house-chimney-crack.svg

<svg xmlns="http://www.w3.org/2000/svg" viewBox="0 0 576 512"><!--! Font Awesome Pro 6.4.2 by @fontawesome - https://fontawesome.com License - https://fontawesome.com/license (Commercial License) Copyright 2023 Fonticons, Inc. --><path d="M272.5 5.7c9-7.6 22.1-7.6 31.1 0L464 141.9V56c0-13.3 10.7-24 24-24s24 10.7 24 24V182.6l55.5 47.1c10.1 8.6 11.4 23.7 2.8 33.8s-23.7 11.3-33.8 2.8L512 245.5V432c0 44.2-35.8 80-80 80H144c-44.2 0-80-35.8-80-80V245.5L39.5 266.3c-10.1 8.6-25.3 7.3-33.8-2.8s-7.3-25.3 2.8-33.8l264-224zM112 204.8V432c0 17.7 14.3 32 32 32h85.9l-30.3-48.1c-4.4-6.9-2.8-16 3.6-21.1L288 327.6l-58.1-76.1c-11.3-14.8 7.4-33.6 22.3-22.5l115.2 86.2c8.4 6.3 8.6 18.8 .4 25.3L288 403.8 325.9 464H432c17.7 0 32-14.3 32-32V204.8L288 55.5 112 204.8z"/></svg>

<svg xmlns="http://www.w3.org/2000/svg" viewBox="0 0 576 512"><!--! Font Awesome Pro 6.1.1 by @fontawesome - https://fontawesome.com License - https://fontawesome.com/license (Commercial License) Copyright 2022 Fonticons, Inc. --><path d="M272.5 5.7C281.4-1.9 294.6-1.9 303.5 5.7L464 141.9V56C464 42.75 474.7 31.1 488 31.1C501.3 31.1 512 42.75 512 56V182.6L567.5 229.7C577.6 238.3 578.9 253.4 570.3 263.5C561.7 273.6 546.6 274.9 536.5 266.3L512 245.5V432C512 476.2 476.2 512 432 512H144C99.82 512 64 476.2 64 432V245.5L39.53 266.3C29.42 274.9 14.28 273.6 5.7 263.5C-2.875 253.4-1.634 238.3 8.473 229.7L272.5 5.7zM112 204.8V432C112 449.7 126.3 464 144 464H229.9L199.6 415.9C195.3 409 196.8 399.1 203.2 394.9L288 327.6L229.9 251.5C218.6 236.7 237.3 217.8 252.2 228.1L367.4 315.2C375.8 321.5 375.1 334 367.7 340.5L288 403.8L325.9 464H432C449.7 464 464 449.7 464 432V204.8L288 55.48L112 204.8z"/></svg>
